src/assets/icons/directions.svg

<svg width="14" height="14" viewBox="0 0 14 14" fill="none" xmlns="http://www.w3.org/2000/svg">
<g id="directions">
<g clip-path="url(#clip0_156_4537)">
<path id="Vector" fill-rule="evenodd" clip-rule="evenodd" d="M1.2012 6.83951C1.11255 6.92815 1.11257 7.07186 1.20118 7.16048L6.83946 12.7988C6.92808 12.8874 7.07178 12.8874 7.16043 12.7987L12.7987 7.16049C12.8873 7.07184 12.8873 6.92814 12.7987 6.83952L7.16041 1.20124C7.0718 1.11263 6.92809 1.11261 6.83945 1.20126L1.2012 6.83951ZM0.398773 7.96288C-0.133032 7.43108 -0.132985 6.56887 0.39879 6.0371L6.03704 0.398851C6.56881 -0.132924 7.43102 -0.132971 7.96282 0.398834L13.6011 6.03712C14.1329 6.56892 14.1329 7.43113 13.6011 7.9629L7.96284 13.6012C7.43107 14.1329 6.56886 14.133 6.03706 13.6012L0.398773 7.96288ZM7.55777 4.5224C7.77835 4.29982 8.1376 4.2982 8.36017 4.51878L10.0428 6.18637C10.148 6.28834 10.2137 6.43064 10.2152 6.58831C10.2152 6.59011 10.2152 6.59191 10.2152 6.59372C10.2152 6.5967 10.2152 6.59969 10.2151 6.60268C10.2132 6.72833 10.1704 6.84407 10.0994 6.9372C10.0835 6.95812 10.0661 6.97801 10.0472 6.99673L8.36016 8.6686C8.13759 8.88918 7.77834 8.88756 7.55776 8.66498C7.33719 8.4424 7.33881 8.08315 7.56139 7.86258L8.26927 7.16106H4.91958V8.70434C4.91958 9.0177 4.66555 9.27173 4.35219 9.27173C4.03883 9.27173 3.7848 9.0177 3.7848 8.70434V6.59367C3.7848 6.28031 4.03883 6.02628 4.35219 6.02628H8.26921L7.56138 5.3248C7.33881 5.10422 7.33719 4.74497 7.55777 4.5224Z" fill="black"/>
</g>
</g>
<defs>
<clipPath id="clip0_156_4537">
<rect width="14" height="14" fill="white"/>
</clipPath>
</defs>
</svg>

<svg xmlns="http://www.w3.org/2000/svg" fill="none" viewBox="0 0 14 14"><g clip-path="url(#a)"><path fill="#000" fill-rule="evenodd" d="M1.201 6.84a.227.227 0 0 0 0 .32L6.84 12.8a.227.227 0 0 0 .321 0L12.8 7.16a.227.227 0 0 0 0-.32L7.16 1.2a.227.227 0 0 0-.32 0zM.4 7.963a1.36 1.36 0 0 1 0-1.926L6.037.4a1.36 1.36 0 0 1 1.926 0L13.6 6.037a1.36 1.36 0 0 1 0 1.926L7.963 13.6a1.36 1.36 0 0 1-1.926 0zm7.159-3.44a.567.567 0 0 1 .802-.004l1.683 1.667c.105.102.17.245.172.402v.015a.56.56 0 0 1-.168.394L8.36 8.669a.567.567 0 1 1-.799-.806l.708-.702H4.92v1.543a.567.567 0 0 1-1.134 0v-2.11c0-.314.254-.568.567-.568H8.27l-.708-.701a.567.567 0 0 1-.003-.803" clip-rule="evenodd"/></g><defs><clipPath id="a"><path fill="#fff" d="M0 0h14v14H0z"/></clipPath></defs></svg>
